X:356
T:Polska efter Lapp-Nils (variant)
R:Polska
O:Jämtland
S:efter Lapp-Nils
Z:Håkan Lidén 2009-12-06
M:3/4
L:1/8
K:Gm
|: D>^F G>A B>d | (3cAc (3BAG A>^F | D>^F G>A B>d | (3cAc d4 |
D>^F G>A B>d | (3cAc (3BAG A>^F | (3cAc (3BGB A>G | ^FG G4 :|[K:G]
|: B>d c>e d>c | B>G A>c B>d | (3cAc (3BAG A>F |(3GBc (3cAc B>G |
B>d c>e d>c | B>G A>c B>d | (3cAc (3BGB A>G | FG G4 :|]
(:musicend:)

(:music:)
